X:176
T:High Barbaree (2)
M:C|
L:1/8
Q:1/4=3D150
K:Bb
F2|\
B>BB>B B2D>E|F>GFD B,2d2|c3d c3B|(A>B)(G>A) F2B>c|
d>d-(3dcB c>c-(3cBA|B>BB>B E2D>E|F>FF>F F2(3(AB)c|d2c>c B2||
